X:6143
T:Soldier Oh
O:england
M:6/8
C:
S:Ruth Temple
N:dance by Ed Stern
A:Headington
R:Jig
%P:(AB)$^{\infty}$
P:(AB2)
%:
%:
K:G
I:speed 300
P:A
D | G2 G G>AB | A2 G E2 D | G2 G B2 d | d2 c A2 \
d | e2 d B>AG | A2 G E>FG | DDD  DEF  | G3   G2 ||\
P:B
D | G2 G E2 D | G2 G E2 D | G2 G B2 d | d2 c A2 \
d | e2 d B>AG | A2 G E>FG | D>DD DEF  | G3   G2 ||


